X: 1
T: Challenger Lodge    [A]
C: Sadie Gillan
R: air, strathspey
Z: 2016 John Chambers <jc:trillian.mit.edu>
F: https://mdmedia.com.au/training/david/wp-content/uploads/Allarr/StColumbasStrathspey.pdf
M: 2/4
L: 1/8
K: A
CD |\
"A"E2A2 "D"F2A2 | "A/C#"E4- "E7/B"E2FG | "A"A2Bc "F#7"fedc | "Bm"e2B2- "E7"B2CD |\
"A"E2A2 "D"F2A2 | "A7"c2BA "D"a2fd | "A/E"e2dc "E7"d2G2 | "A D A"A6 "E7"CD |
"A"E2A2 "D"F2A2 | "A/C#"E6 "E7/B"FG | "A"A2Bc "F#7"fedc | "Bm"e2B2- "E7"B2CD |\
"A"E2A2 "D"FGAB | "C#7"c2BA "F#m B7/D#"Aagf | "A/E"e2dc "E7"d2G2 | "A D A"A6 |]
AG |\
"D"F3^E F=G^GA | "A/C#"E6 "B7/D#"BA | "E"G3A "E7"B^AB=c | "A"^c6 "/C#"AG |\
"D"F3^E F=G^GA | "A/C#"E6 FE | "B"^D3E "B7"FEFA | "Bm7/E"B6 "E7"CD |
"A"E2A2 "D"F2A2 | "A/C#"E6 "E7/B"FG | "A"A2Bc "F#7"fedc | "Bm"edcB "E7"AGF=F |\
"A"E2A2 "D"FGAB | "C#7"c2BA "F#m B7/D#"Aagf | "A/E"e2dc "E7"d2G2 | "A D A"A6 |]

